front/src/Assets/image/sidebar/Book_open.svg

<svg width="24" height="24" viewBox="0 0 24 24" fill="none" xmlns="http://www.w3.org/2000/svg">
<path d="M5 17H9C10.6569 17 12 18.3431 12 20V10C12 7.17157 12 5.75736 11.1213 4.87868C10.2426 4 8.82843 4 6 4H5C4.05719 4 3.58579 4 3.29289 4.29289C3 4.58579 3 5.05719 3 6V15C3 15.9428 3 16.4142 3.29289 16.7071C3.58579 17 4.05719 17 5 17Z" stroke="#666666"/>
<path d="M19 17H15C13.3431 17 12 18.3431 12 20V10C12 7.17157 12 5.75736 12.8787 4.87868C13.7574 4 15.1716 4 18 4H19C19.9428 4 20.4142 4 20.7071 4.29289C21 4.58579 21 5.05719 21 6V15C21 15.9428 21 16.4142 20.7071 16.7071C20.4142 17 19.9428 17 19 17Z" stroke="#666666"/>
</svg>

<svg xmlns="http://www.w3.org/2000/svg" fill="none" viewBox="0 0 24 24">
  <path stroke="#666" d="M5 17h4a3 3 0 013 3V10c0-2.828 0-4.243-.879-5.121C10.243 4 8.828 4 6 4H5c-.943 0-1.414 0-1.707.293C3 4.586 3 5.057 3 6v9c0 .943 0 1.414.293 1.707C3.586 17 4.057 17 5 17zm14 0h-4a3 3 0 00-3 3V10c0-2.828 0-4.243.879-5.121C13.757 4 15.172 4 18 4h1c.943 0 1.414 0 1.707.293C21 4.586 21 5.057 21 6v9c0 .943 0 1.414-.293 1.707C20.414 17 19.943 17 19 17z"/>
</svg>
